light/build/img/logo-1.svg

<svg width="56" height="50" viewBox="0 0 56 50" fill="" xmlns="http://www.w3.org/2000/svg">
	<path d="M48.0274 9.09589L31.2329 20.2192L33.1507 23.0959L22.2192 30.3288L15.6712 20.4658L26.6301 13.2055L28.5753 16.137L44.3562 5.67123C39.6986 2.13699 33.9452 0 27.6438 0C12.3836 0.0547945 0 12.4384 0 27.6986C0 36.8767 4.49315 44.9589 11.3425 50V47.3151C11.3425 46.137 12.3014 45.1507 13.5068 45.1507H15.6712V41.863C15.6712 40.6849 16.6301 39.6986 17.8356 39.6986H37.4795C38.6575 39.6986 39.6438 40.6575 39.6438 41.863V45.1507H41.8082C42.9863 45.1507 43.9726 46.1096 43.9726 47.3151V50C50.8493 44.9589 55.3151 36.8767 55.3151 27.6986C55.2877 20.5205 52.5205 14 48.0274 9.09589ZM12.5753 17.863C12.4932 17.7808 12.1918 17.3425 12.1644 17.2329C11.726 16.274 12.0548 15.1233 12.9589 14.4932L22.411 8.30137C23.2055 7.75343 24.2192 7.80822 24.9589 8.35616C25.1507 8.49315 25.6164 9.15069 25.6712 9.28767C26.0548 10.2466 25.7534 11.3699 24.8493 11.9452L15.4247 18.1644C14.5205 18.7945 13.3151 18.6301 12.5753 17.863ZM35.863 29.0685L26.411 35.2603C25.5068 35.863 24.3014 35.726 23.589 34.9589C23.5068 34.8767 23.2055 34.4384 23.1781 34.3288C22.7397 33.3699 23.0685 32.2192 23.9726 31.589L33.4247 25.3973C34.2192 24.8493 35.2329 24.9041 35.9726 25.4521C36.1644 25.589 36.6301 26.2466 36.6849 26.3836C37.0411 27.3699 36.7397 28.4932 35.863 29.0685Z" fill=""/>
</svg>

<svg width="56" height="50" xmlns="http://www.w3.org/2000/svg"><path d="M48.027 9.096 31.233 20.219l1.918 2.877-10.932 7.233-6.548-9.863 10.96-7.26 1.944 2.931L44.356 5.671C39.7 2.137 33.946 0 27.644 0 12.384.055 0 12.438 0 27.699 0 36.877 4.493 44.959 11.342 50v-2.685c0-1.178.96-2.164 2.165-2.164h2.164v-3.288c0-1.178.96-2.164 2.165-2.164H37.48c1.178 0 2.164.959 2.164 2.164v3.288h2.164c1.178 0 2.165.959 2.165 2.164V50c6.876-5.041 11.342-13.123 11.342-22.301C55.288 20.52 52.521 14 48.027 9.096Zm-35.452 8.767c-.082-.082-.383-.52-.41-.63-.439-.959-.11-2.11.794-2.74l9.452-6.192a2.18 2.18 0 0 1 2.548.055c.192.137.657.795.712.932.384.959.082 2.082-.822 2.657l-9.424 6.22c-.905.63-2.11.465-2.85-.302Zm23.288 11.206-9.452 6.191c-.904.603-2.11.466-2.822-.301-.082-.082-.383-.52-.41-.63-.44-.96-.11-2.11.794-2.74l9.452-6.192a2.18 2.18 0 0 1 2.548.055c.191.137.657.795.712.932.356.986.055 2.11-.822 2.684Z"/></svg>
